32x32/apps/gargoyle-house.svg

<svg height="32" width="32" xmlns="http://www.w3.org/2000/svg"><path d="m28 29.741v-15.459l-1.955-1.97c-.48-.482-3.448-3.116-4.102-3.242l-5.762-4.286-6.503 4.484c-.555.383-3.385 2.744-3.849 3.243l-1.829 1.97v15.26c0 .699.535 1.259 1.2 1.259h21.6c.665 0 1.2-.561 1.2-1.259z" opacity=".2"/><path d="m28 28.741v-15.459l-1.955-1.97c-.48-.482-3.448-3.116-4.102-3.242l-5.762-4.286-6.503 4.484c-.555.383-3.385 2.744-3.849 3.243l-1.829 1.97v15.26c0 .699.535 1.259 1.2 1.259h21.6c.665 0 1.2-.561 1.2-1.259z" fill="#f4f4f7"/><path d="m4 13h24v1h-24z" opacity=".15"/><rect fill="#4f4f4f" height="7" rx=".713" ry=".765" width="4" x="5" y="4"/><rect fill="#956a42" height="11" rx="1.05" ry="1.031" width="7" x="6" y="17"/><path d="m18.875 17c-1.026 0-1.875.85-1.875 1.875v5.25c0 1.026.85 1.875 1.875 1.875h5.25c1.026 0 1.875-.85 1.875-1.875v-5.25c0-1.026-.85-1.875-1.875-1.875z" fill="#956a42"/><path d="m19.313 20a.3.3 0 0 0 -.313.313v4.375a.3.3 0 0 0 .313.312h4.374a.3.3 0 0 0 .313-.313v-4.374a.3.3 0 0 0 -.313-.313z" opacity=".2"/><path d="m19.313 19a.3.3 0 0 0 -.313.313v4.375a.3.3 0 0 0 .313.312h4.374a.3.3 0 0 0 .313-.313v-4.374a.3.3 0 0 0 -.313-.313z" fill="#c2eeff"/><circle cx="11" cy="23" opacity=".2" r="1"/><circle cx="11" cy="22" fill="#f4f4f7" r="1"/><path d="m6.211 11.166c-.408.34-.744.628-.878.765l-1.919 1.97v-.682h2.797z" opacity=".05"/><path d="m9 8.736a79.653 79.653 0 0 0 -3 2.211v2.053h3z" opacity=".15"/><path d="m12 6.868-2.612 1.6c-.07.044-.261.181-.388.268v4.264h3z" opacity=".05"/><path d="m15 5.029-3 1.84v6.131h3z" opacity=".15"/><path d="m16.704 3.984-1.704 1.045v7.971h3v-8.158z" opacity=".05"/><path d="m18 4.842v8.158h3v-6.175z" opacity=".15"/><path d="m21 6.825v6.175h3v-4.322c-.353-.219-.652-.38-.813-.407z" opacity=".05"/><path d="m24 8.678v4.322h3v-2.143c-.85-.675-2.12-1.634-3-2.18z" opacity=".15"/><path d="m25.789 11.076v2.143h2.797v.483l-2.051-1.97a21.755 21.755 0 0 0 -.746-.656z" opacity=".05"/><path d="m16 3.5-12.5 10m12.5-10 12.5 10" fill="none" stroke="#5d5d5d" stroke-linecap="round" stroke-linejoin="round" stroke-width="3"/><g fill="#f4f4f7"><path d="m15.967 1.986a1.5 1.5 0 0 0 -1.102.5l-12.303 9.842a1.5 1.5 0 0 0 -.475 1.672 1.5 1.5 0 0 1 .477-.672l12.302-9.842a1.5 1.5 0 0 1 1.102-.5 1.5 1.5 0 0 1 .013 0 1.5 1.5 0 0 1 .012 0 1.5 1.5 0 0 1 1.143.5l12.302 9.842a1.5 1.5 0 0 1 .477.672 1.5 1.5 0 0 0 -.477-1.672l-12.302-9.842a1.5 1.5 0 0 0 -1.143-.5 1.5 1.5 0 0 0 -.012 0 1.5 1.5 0 0 0 -.013 0z" fill-rule="evenodd" opacity=".1"/><path d="m5.713 4c-.395 0-.713.342-.713.766v1c0-.424.318-.766.713-.766h2.574c.395 0 .713.342.713.766v-1c0-.424-.318-.766-.713-.766z" opacity=".1"/></g></svg>

<svg xmlns="http://www.w3.org/2000/svg" width="32" height="32" version="1"><path style="opacity:.2" d="M28 29.741V14.282l-1.955-1.97c-.48-.482-3.448-3.116-4.102-3.242l-5.762-4.286-6.503 4.484c-.555.383-3.385 2.744-3.849 3.243L4 14.481v15.26C4 30.44 4.535 31 5.2 31h21.6c.665 0 1.2-.561 1.2-1.259z"/><path style="fill:#f4f4f7" d="M28 28.741V13.282l-1.955-1.97c-.48-.482-3.448-3.116-4.102-3.242l-5.762-4.286-6.503 4.484c-.555.383-3.385 2.744-3.849 3.243L4 13.481v15.26C4 29.44 4.535 30 5.2 30h21.6c.665 0 1.2-.561 1.2-1.259z"/><path style="opacity:.15" d="M4 13h24v1H4z"/><rect style="fill:#4f4f4f" width="4" height="7" x="5" y="4" rx=".713" ry=".765"/><rect style="fill:#956a42" width="7" height="11" x="6" y="17" rx="1.05" ry="1.031"/><path style="fill:#956a42" d="M18.875 17C17.849 17 17 17.85 17 18.875v5.25c0 1.026.85 1.875 1.875 1.875h5.25C25.151 26 26 25.15 26 24.125v-5.25C26 17.849 25.15 17 24.125 17h-5.25z"/><path style="opacity:.2" d="M19.313 20a.3.3 0 0 0-.313.313v4.375a.3.3 0 0 0 .313.312h4.374a.3.3 0 0 0 .313-.313v-4.374a.3.3 0 0 0-.313-.313h-4.374z"/><path style="fill:#c2eeff" d="M19.313 19a.3.3 0 0 0-.313.313v4.375a.3.3 0 0 0 .313.312h4.374a.3.3 0 0 0 .313-.313v-4.374a.3.3 0 0 0-.313-.313h-4.374z"/><circle style="opacity:.2" cx="11" cy="23" r="1"/><circle style="fill:#f4f4f7" cx="11" cy="22" r="1"/><path style="opacity:.05" d="M6.211 11.166c-.408.34-.744.628-.878.765l-1.919 1.97v-.682h2.797z"/><path style="opacity:.15" d="M9 8.736a79.653 79.653 0 0 0-3 2.211V13h3z"/><path style="opacity:.05" d="m12 6.868-2.612 1.6c-.07.044-.261.181-.388.268V13h3z"/><path style="opacity:.15" d="m15 5.029-3 1.84V13h3z"/><path style="opacity:.05" d="M16.704 3.984 15 5.029V13h3V4.842z"/><path style="opacity:.15" d="M18 4.842V13h3V6.825z"/><path style="opacity:.05" d="M21 6.825V13h3V8.678c-.353-.219-.652-.38-.813-.407z"/><path style="opacity:.15" d="M24 8.678V13h3v-2.143c-.85-.675-2.12-1.634-3-2.18z"/><path style="opacity:.05" d="M25.789 11.076v2.143h2.797v.483l-2.051-1.97a21.755 21.755 0 0 0-.746-.656z"/><path style="fill:none;stroke:#5d5d5d;stroke-width:3;stroke-linecap:round;stroke-linejoin:round" d="m16 3.5-12.5 10M16 3.5l12.5 10"/><path style="opacity:.1;fill:#f4f4f7;fill-rule:evenodd" d="M15.967 1.986a1.5 1.5 0 0 0-1.102.5L2.562 12.328A1.5 1.5 0 0 0 2.087 14a1.5 1.5 0 0 1 .477-.672l12.302-9.842a1.5 1.5 0 0 1 1.102-.5 1.5 1.5 0 0 1 .013 0 1.5 1.5 0 0 1 .012 0 1.5 1.5 0 0 1 1.143.5l12.302 9.842a1.5 1.5 0 0 1 .477.672 1.5 1.5 0 0 0-.477-1.672L17.136 2.486a1.5 1.5 0 0 0-1.143-.5 1.5 1.5 0 0 0-.012 0 1.5 1.5 0 0 0-.013 0z"/><path style="opacity:.1;fill:#f4f4f7" d="M5.713 4C5.318 4 5 4.342 5 4.766v1C5 5.342 5.318 5 5.713 5h2.574c.395 0 .713.342.713.766v-1C9 4.342 8.682 4 8.287 4H5.713z"/></svg>
